icons/evolvere-flat-vivid-sunken/apps/64/default-applications.svg

<?xml version="1.0" encoding="UTF-8" standalone="no"?>
<!-- Created with Inkscape (http://www.inkscape.org/) -->

<svg
   xmlns:dc="http://purl.org/dc/elements/1.1/"
   xmlns:cc="http://creativecommons.org/ns#"
   xmlns:rdf="http://www.w3.org/1999/02/22-rdf-syntax-ns#"
   xmlns:svg="http://www.w3.org/2000/svg"
   xmlns="http://www.w3.org/2000/svg"
   xmlns:sodipodi="http://sodipodi.sourceforge.net/DTD/sodipodi-0.dtd"
   xmlns:inkscape="http://www.inkscape.org/namespaces/inkscape"
   width="64"
   height="64"
   id="svg13094"
   version="1.1"
   inkscape:version="0.91+devel r"
   sodipodi:docname="default-applications.svg">
  <sodipodi:namedview
     id="base"
     pagecolor="#ffffff"
     bordercolor="#666666"
     borderopacity="1.0"
     inkscape:pageopacity="0"
     inkscape:pageshadow="2"
     inkscape:zoom="11.313709"
     inkscape:cx="27.520261"
     inkscape:cy="32.24963"
     inkscape:document-units="px"
     inkscape:current-layer="svg13094"
     showgrid="true"
     inkscape:snap-bbox="true"
     inkscape:bbox-paths="true"
     inkscape:bbox-nodes="true"
     inkscape:snap-bbox-edge-midpoints="true"
     inkscape:snap-bbox-midpoints="true"
     inkscape:object-paths="true"
     inkscape:snap-intersection-paths="true"
     inkscape:object-nodes="true"
     inkscape:snap-smooth-nodes="true"
     inkscape:snap-midpoints="true"
     inkscape:snap-object-midpoints="true"
     inkscape:snap-center="true"
     showguides="true"
     inkscape:guide-bbox="true"
     inkscape:window-width="1920"
     inkscape:window-height="1023"
     inkscape:window-x="-10"
     inkscape:window-y="35"
     inkscape:window-maximized="1"
     inkscape:snap-global="true"
     fit-margin-top="0"
     fit-margin-left="0"
     fit-margin-right="0"
     fit-margin-bottom="0"
     showborder="true"
     inkscape:showpageshadow="false"
     inkscape:snap-page="true">
    <inkscape:grid
       type="xygrid"
       id="grid3075"
       empspacing="5"
       visible="true"
       enabled="true"
       snapvisiblegridlinesonly="true"
       originx="1.6362304e-08px"
       originy="18px" />
  </sodipodi:namedview>
  <defs
     id="defs13096" />
  <metadata
     id="metadata13099">
    <rdf:RDF>
      <cc:Work
         rdf:about="">
        <dc:format>image/svg+xml</dc:format>
        <dc:type
           rdf:resource="http://purl.org/dc/dcmitype/StillImage" />
        <dc:title></dc:title>
      </cc:Work>
    </rdf:RDF>
  </metadata>
  <path
     inkscape:connector-curvature="0"
     style="color:#000000;display:inline;overflow:visible;visibility:visible;fill:#758c8f;fill-opacity:1;fill-rule:nonzero;stroke:none;stroke-width:2.28571415;marker:none;enable-background:accumulate"
     d="m 0,4 0,30 0,28 2,2 30,0 30,0 2,-2 L 64,34 64,4 32,4 0,4 Z"
     id="path6498-3" />
  <path
     id="path6498"
     d="m 32,4 0,30 32,0 0,-30 z"
     style="color:#000000;display:inline;overflow:visible;visibility:visible;fill:#f2bb20;fill-opacity:1;fill-rule:nonzero;stroke:none;stroke-width:2.28571415;marker:none;enable-background:accumulate"
     inkscape:connector-curvature="0"
     sodipodi:nodetypes="ccccc" />
  <path
     id="path6505"
     d="m 32,34 -32,0 0,28 2,2 30,0 0,-30 z"
     style="color:#000000;display:inline;overflow:visible;visibility:visible;fill:#7a4ac1;fill-opacity:1;fill-rule:nonzero;stroke:none;stroke-width:2.28571415;marker:none;enable-background:accumulate"
     inkscape:connector-curvature="0" />
  <path
     inkscape:connector-curvature="0"
     id="path6502"
     d="M 32,0 32,4 64,4 64,1 62,0 32,0 Z"
     style="color:#000000;display:inline;overflow:visible;visibility:visible;fill:#ffed44;fill-opacity:1;fill-rule:nonzero;stroke:none;marker:none;enable-background:accumulate" />
  <path
     id="path6491"
     d="M 0,4 0,34 32,34 32,4 Z"
     style="color:#000000;display:inline;overflow:visible;visibility:visible;fill:#3786dd;fill-opacity:1;fill-rule:nonzero;stroke:none;stroke-width:2.28571415;marker:none;enable-background:accumulate"
     inkscape:connector-curvature="0" />
  <path
     id="path6509"
     d="m 32,34 0,30 30,0 2,-2 0,-28 z"
     style="color:#000000;display:inline;overflow:visible;visibility:visible;fill:#30a77b;fill-opacity:1;fill-rule:nonzero;stroke:none;stroke-width:2.28571415;marker:none;enable-background:accumulate"
     inkscape:connector-curvature="0"
     sodipodi:nodetypes="cccccc" />
  <path
     style="color:#000000;display:inline;overflow:visible;visibility:visible;fill:#7acfff;fill-opacity:1;fill-rule:nonzero;stroke:none;stroke-width:2.28571415;marker:none;enable-background:accumulate"
     d="M 2,0 1.6362304e-8,1 0,4 32,4 32,0 Z"
     id="path6495"
     inkscape:connector-curvature="0"
     sodipodi:nodetypes="cccccc" />
  <path
     sodipodi:nodetypes="cccc"
     inkscape:connector-curvature="0"
     id="path4386"
     d="M 0,3 1.6362304e-8,6 2,4 Z"
     style="color:#000000;display:inline;overflow:visible;visibility:visible;fill:#83d9ff;fill-opacity:1;fill-rule:nonzero;stroke:none;stroke-width:2.28571415;marker:none;enable-background:accumulate" />
  <path
     d="M 64,6 62,4 64,3 Z"
     id="path3028"
     style="opacity:1;fill:#f6d439;fill-opacity:1;stroke:none;stroke-width:1;stroke-linecap:butt;stroke-linejoin:miter;stroke-miterlimit:4;stroke-dasharray:none;stroke-dashoffset:0;stroke-opacity:1;marker:none"
     inkscape:connector-curvature="0"
     sodipodi:nodetypes="cccc" />
  <path
     id="path3116"
     d="m 32.000001,10.974465 c 0.615138,0 6.279004,13.443321 6.776665,13.804891 0.497656,0.361571 15.033243,1.594015 15.223334,2.179049 0.190087,0.58503 -10.845038,10.1259 -11.035126,10.710935 -0.190088,0.585034 3.129532,14.790043 2.631872,15.151613 C 45.099089,53.182523 32.615139,45.635787 32,45.635787 c -0.615139,0 -13.09909,7.546733 -13.596746,7.185166 C 17.905593,52.459382 21.225213,38.254374 21.035124,37.66934 20.845037,37.084305 9.8099132,27.543435 10,26.958404 c 0.190091,-0.585033 14.725676,-1.817477 15.223334,-2.179048 0.497658,-0.36157 6.161527,-13.804891 6.776667,-13.804891 z"
     inkscape:transform-center-y="-2.20263"
     style="color:#000000;display:inline;overflow:visible;visibility:visible;fill:#ebf2f9;fill-opacity:1;fill-rule:nonzero;stroke:none;stroke-width:2.28571415;marker:none;enable-background:accumulate"
     inkscape:connector-curvature="0" />
  <path
     inkscape:connector-curvature="0"
     style="color:#000000;display:inline;overflow:visible;visibility:visible;fill:#404957;fill-opacity:0.09660106;fill-rule:nonzero;stroke:none;stroke-width:1;marker:none;enable-background:accumulate"
     d="m 33,11.96875 c -0.04377,0 -0.127538,0.09218 -0.21875,0.21875 1.711927,3.226706 5.590141,12.295972 6,12.59375 0.03972,0.02886 0.295888,0.05457 0.5,0.09375 C 37.77451,21.842452 33.528106,11.96875 33,11.96875 Z m 20.5625,15.625 c -2.027284,2.255327 -10.428032,9.552469 -10.59375,10.0625 -0.190088,0.585034 3.12266,14.79468 2.625,15.15625 C 45.096093,53.17407 32.615139,45.625 32,45.625 c -0.519792,0 -9.455206,5.360199 -12.53125,6.8125 -0.104031,0.746825 -0.148451,1.312553 -0.0625,1.375 C 19.903906,54.174067 32.384861,46.625 33,46.625 c 0.615139,0 13.096093,7.54907 13.59375,7.1875 0.49766,-0.36157 -2.815088,-14.571216 -2.625,-15.15625 C 44.158838,38.071215 55.190087,28.55378 55,27.96875 c -0.03432,-0.105631 -0.634912,-0.236094 -1.4375,-0.375 z m -41.9375,1.1875 c 1.735264,1.86431 6.800345,6.359026 9.15625,8.59375 -0.962999,-1.091775 -6.362604,-5.868963 -9.15625,-8.59375 z"
     id="path4159" />
</svg>

<?xml version="1.0" encoding="UTF-8" standalone="no"?>
<!-- Created with Inkscape (http://www.inkscape.org/) -->

<svg
   xmlns:dc="http://purl.org/dc/elements/1.1/"
   xmlns:cc="http://creativecommons.org/ns#"
   xmlns:rdf="http://www.w3.org/1999/02/22-rdf-syntax-ns#"
   xmlns:svg="http://www.w3.org/2000/svg"
   xmlns="http://www.w3.org/2000/svg"
   xmlns:sodipodi="http://sodipodi.sourceforge.net/DTD/sodipodi-0.dtd"
   xmlns:inkscape="http://www.inkscape.org/namespaces/inkscape"
   width="64"
   height="64"
   id="svg13094"
   version="1.1"
   inkscape:version="0.91+devel r"
   sodipodi:docname="default-applications.svg">
  <sodipodi:namedview
     id="base"
     pagecolor="#ffffff"
     bordercolor="#666666"
     borderopacity="1.0"
     inkscape:pageopacity="0"
     inkscape:pageshadow="2"
     inkscape:zoom="11.313709"
     inkscape:cx="27.82962"
     inkscape:cy="31.454135"
     inkscape:document-units="px"
     inkscape:current-layer="g3033"
     showgrid="true"
     inkscape:snap-bbox="true"
     inkscape:bbox-paths="true"
     inkscape:bbox-nodes="true"
     inkscape:snap-bbox-edge-midpoints="true"
     inkscape:snap-bbox-midpoints="true"
     inkscape:object-paths="true"
     inkscape:snap-intersection-paths="true"
     inkscape:object-nodes="true"
     inkscape:snap-smooth-nodes="true"
     inkscape:snap-midpoints="true"
     inkscape:snap-object-midpoints="true"
     inkscape:snap-center="true"
     showguides="true"
     inkscape:guide-bbox="true"
     inkscape:window-width="1920"
     inkscape:window-height="1023"
     inkscape:window-x="-10"
     inkscape:window-y="35"
     inkscape:window-maximized="1"
     inkscape:snap-global="true"
     fit-margin-top="0"
     fit-margin-left="0"
     fit-margin-right="0"
     fit-margin-bottom="0"
     showborder="true"
     inkscape:showpageshadow="false"
     inkscape:snap-page="true">
    <inkscape:grid
       type="xygrid"
       id="grid3075"
       empspacing="5"
       visible="true"
       enabled="true"
       snapvisiblegridlinesonly="true"
       originx="1.6362304e-08px"
       originy="18px" />
  </sodipodi:namedview>
  <defs
     id="defs13096" />
  <metadata
     id="metadata13099">
    <rdf:RDF>
      <cc:Work
         rdf:about="">
        <dc:format>image/svg+xml</dc:format>
        <dc:type
           rdf:resource="http://purl.org/dc/dcmitype/StillImage" />
        <dc:title></dc:title>
      </cc:Work>
    </rdf:RDF>
  </metadata>
  <path
     inkscape:connector-curvature="0"
     style="color:#000000;display:inline;overflow:visible;visibility:visible;fill:#758c8f;fill-opacity:1;fill-rule:nonzero;stroke:none;stroke-width:2.28571415;marker:none;enable-background:accumulate"
     d="m 0,4 0,30 0,28 2,2 30,0 30,0 2,-2 L 64,34 64,4 32,4 0,4 Z"
     id="path6498-3" />
  <path
     id="path6498"
     d="m 32,4 0,30 32,0 0,-30 z"
     style="color:#000000;display:inline;overflow:visible;visibility:visible;fill:#f2bb20;fill-opacity:1;fill-rule:nonzero;stroke:none;stroke-width:2.28571415;marker:none;enable-background:accumulate"
     inkscape:connector-curvature="0"
     sodipodi:nodetypes="ccccc" />
  <path
     id="path6505"
     d="m 32,34 -32,0 0,28 2,2 30,0 0,-30 z"
     style="color:#000000;display:inline;overflow:visible;visibility:visible;fill:#7a4ac1;fill-opacity:1;fill-rule:nonzero;stroke:none;stroke-width:2.28571415;marker:none;enable-background:accumulate"
     inkscape:connector-curvature="0" />
  <path
     inkscape:connector-curvature="0"
     id="path6502"
     d="M 32,0 32,4 64,4 64,1 62,0 32,0 Z"
     style="color:#000000;display:inline;overflow:visible;visibility:visible;fill:#ffed44;fill-opacity:1;fill-rule:nonzero;stroke:none;marker:none;enable-background:accumulate" />
  <path
     id="path6491"
     d="M 0,4 0,34 32,34 32,4 Z"
     style="color:#000000;display:inline;overflow:visible;visibility:visible;fill:#3786dd;fill-opacity:1;fill-rule:nonzero;stroke:none;stroke-width:2.28571415;marker:none;enable-background:accumulate"
     inkscape:connector-curvature="0" />
  <path
     id="path6509"
     d="m 32,34 0,30 30,0 2,-2 0,-28 z"
     style="color:#000000;display:inline;overflow:visible;visibility:visible;fill:#30a77b;fill-opacity:1;fill-rule:nonzero;stroke:none;stroke-width:2.28571415;marker:none;enable-background:accumulate"
     inkscape:connector-curvature="0"
     sodipodi:nodetypes="cccccc" />
  <path
     style="color:#000000;display:inline;overflow:visible;visibility:visible;fill:#7acfff;fill-opacity:1;fill-rule:nonzero;stroke:none;stroke-width:2.28571415;marker:none;enable-background:accumulate"
     d="M 2,0 1.6362304e-8,1 0,4 32,4 32,0 Z"
     id="path6495"
     inkscape:connector-curvature="0"
     sodipodi:nodetypes="cccccc" />
  <path
     sodipodi:nodetypes="cccc"
     inkscape:connector-curvature="0"
     id="path4386"
     d="M 0,3 1.6362304e-8,6 2,4 Z"
     style="color:#000000;display:inline;overflow:visible;visibility:visible;fill:#83d9ff;fill-opacity:1;fill-rule:nonzero;stroke:none;stroke-width:2.28571415;marker:none;enable-background:accumulate" />
  <path
     d="M 64,6 62,4 64,3 Z"
     id="path3028"
     style="opacity:1;fill:#f6d439;fill-opacity:1;stroke:none;stroke-width:1;stroke-linecap:butt;stroke-linejoin:miter;stroke-miterlimit:4;stroke-dasharray:none;stroke-dashoffset:0;stroke-opacity:1;marker:none"
     inkscape:connector-curvature="0"
     sodipodi:nodetypes="cccc" />
  <g
     id="g3033">
    <path
       inkscape:connector-curvature="0"
       style="color:#000000;fill:#ebf2f9;fill-opacity:1;fill-rule:nonzero;stroke:none;stroke-width:2.28571415;marker:none;visibility:visible;display:inline;overflow:visible;enable-background:accumulate"
       inkscape:transform-center-y="-2.20263"
       d="m 32.000001,10.974465 c 0.615138,0 6.279004,13.443321 6.776665,13.804891 0.497656,0.361571 15.033243,1.594015 15.223334,2.179049 0.190087,0.58503 -10.845038,10.1259 -11.035126,10.710935 -0.190088,0.585034 3.129532,14.790043 2.631872,15.151613 C 45.099089,53.182523 32.615139,45.635787 32,45.635787 c -0.615139,0 -13.09909,7.546733 -13.596746,7.185166 C 17.905593,52.459382 21.225213,38.254374 21.035124,37.66934 20.845037,37.084305 9.8099132,27.543435 10,26.958404 c 0.190091,-0.585033 14.725676,-1.817477 15.223334,-2.179048 0.497658,-0.36157 6.161527,-13.804891 6.776667,-13.804891 z"
       id="path3116" />
    <path
       id="path4159"
       d="M 33 11.96875 C 32.95623 11.96875 32.872462 12.060932 32.78125 12.1875 C 34.493177 15.414206 38.371391 24.483472 38.78125 24.78125 C 38.820967 24.810106 39.077138 24.835822 39.28125 24.875 C 37.77451 21.842452 33.528106 11.96875 33 11.96875 z M 53.5625 27.59375 C 51.535216 29.849077 43.134468 37.146219 42.96875 37.65625 C 42.778662 38.241284 46.09141 52.45093 45.59375 52.8125 C 45.096093 53.17407 32.615139 45.625 32 45.625 C 31.480208 45.625 22.544794 50.985199 19.46875 52.4375 C 19.364719 53.184325 19.320299 53.750053 19.40625 53.8125 C 19.903906 54.174067 32.384861 46.625 33 46.625 C 33.615139 46.625 46.096093 54.17407 46.59375 53.8125 C 47.09141 53.45093 43.778662 39.241284 43.96875 38.65625 C 44.158838 38.071215 55.190087 28.55378 55 27.96875 C 54.965678 27.863119 54.365088 27.732656 53.5625 27.59375 z M 11.625 28.78125 C 13.360264 30.64556 18.425345 35.140276 20.78125 37.375 C 19.818251 36.283225 14.418646 31.506037 11.625 28.78125 z "
       style="color:#000000;fill:#404957;fill-opacity:0.09660108;fill-rule:nonzero;stroke:none;stroke-width:1;marker:none;visibility:visible;display:inline;overflow:visible;enable-background:accumulate" />
  </g>
</svg>
